static/card-icons/list-checks.svg

<svg viewBox="0 0 512 512" xmlns="http://www.w3.org/2000/svg"><path d="m111.4 0h-96.4c-8.284 0-15 6.716-15 15v96.4c0 8.284 6.716 15 15 15h96.4c8.284 0 15-6.716 15-15v-96.4c0-8.284-6.715-15-15-15zm-15 96.4h-66.4v-66.4h66.4z"/><path d="m111.4 192.8h-96.4c-8.284 0-15 6.716-15 15v96.401c0 8.284 6.716 15 15 15h96.4c8.284 0 15-6.716 15-15v-96.401c0-8.284-6.715-15-15-15zm-15 96.401h-66.4v-66.401h66.4z"/><path d="m111.4 385.602h-96.4c-8.284 0-15 6.716-15 15v96.398c0 8.284 6.716 15 15 15h96.4c8.284 0 15-6.716 15-15v-96.398c0-8.285-6.715-15-15-15zm-15 96.398h-66.4v-66.398h66.4z"/><path d="m497 48.2h-289.2c-8.284 0-15 6.716-15 15s6.716 15 15 15h289.2c8.284 0 15-6.716 15-15s-6.716-15-15-15z"/><path d="m497 433.801h-289.2c-8.284 0-15 6.716-15 15s6.716 15 15 15h289.2c8.284 0 15-6.716 15-15s-6.716-15-15-15z"/><path d="m497 241h-289.2c-8.284 0-15 6.716-15 15s6.716 15 15 15h289.2c8.284 0 15-6.716 15-15s-6.716-15-15-15z"/></svg>

<?xml version="1.0" encoding="iso-8859-1"?>
<!-- Generator: Adobe Illustrator 19.0.0, SVG Export Plug-In . SVG Version: 6.00 Build 0)  -->
<svg version="1.1" id="Capa_1" xmlns="http://www.w3.org/2000/svg" xmlns:xlink="http://www.w3.org/1999/xlink" x="0px" y="0px"
	 viewBox="0 0 512 512" style="enableBackground:new 0 0 512 512;" xml:space="preserve">
<g>
	<g>
		<path d="M111.4,0H15C6.716,0,0,6.716,0,15v96.4c0,8.284,6.716,15,15,15h96.4c8.284,0,15-6.716,15-15V15
			C126.4,6.716,119.685,0,111.4,0z M96.4,96.4H30V30h66.4V96.4z"/>
	</g>
</g>
<g>
	<g>
		<path d="M111.4,192.8H15c-8.284,0-15,6.716-15,15v96.401c0,8.284,6.716,15,15,15h96.4c8.284,0,15-6.716,15-15V207.8
			C126.4,199.516,119.685,192.8,111.4,192.8z M96.4,289.201H30V222.8h66.4V289.201z"/>
	</g>
</g>
<g>
	<g>
		<path d="M111.4,385.602H15c-8.284,0-15,6.716-15,15V497c0,8.284,6.716,15,15,15h96.4c8.284,0,15-6.716,15-15v-96.398
			C126.4,392.317,119.685,385.602,111.4,385.602z M96.4,482H30v-66.398h66.4V482z"/>
	</g>
</g>
<g>
	<g>
		<path d="M497,48.2H207.8c-8.284,0-15,6.716-15,15s6.716,15,15,15H497c8.284,0,15-6.716,15-15S505.284,48.2,497,48.2z"/>
	</g>
</g>
<g>
	<g>
		<path d="M497,433.801H207.8c-8.284,0-15,6.716-15,15s6.716,15,15,15H497c8.284,0,15-6.716,15-15S505.284,433.801,497,433.801z"/>
	</g>
</g>
<g>
	<g>
		<path d="M497,241H207.8c-8.284,0-15,6.716-15,15s6.716,15,15,15H497c8.284,0,15-6.716,15-15S505.284,241,497,241z"/>
	</g>
</g>
<g>
</g>
<g>
</g>
<g>
</g>
<g>
</g>
<g>
</g>
<g>
</g>
<g>
</g>
<g>
</g>
<g>
</g>
<g>
</g>
<g>
</g>
<g>
</g>
<g>
</g>
<g>
</g>
<g>
</g>
</svg>
